X:1
T:Title
%%score { ( 1 3 4 ) | ( 2 5 ) }
L:1/8
M:3/4
K:G
V:1 treble nm="Grand Piano"
V:3 treble 
V:4 treble 
V:2 bass 
V:5 bass 
V:1
 z2 z2[Q:1/4=96] DD | z2 z B FG | A2 E2 FE | z2 z F Ac |[M:2/4] B4 |[M:1/4] DD |[M:3/4] z2 z B FG | %7
 A2 E2 AA | A3 G FE | D6 |[M:1/4] DD |[M:3/4] z C Cc ^GA | B2 D2 z2 | E4 z2 |[M:2/4] [^DB]4 | %15
[M:1/4] BB |[M:3/4] B4 z2 | d2 c2 z2 |[M:7/8] z B,B, BB3/2A3/2 |[M:3/4] [B,G]6 |[M:6/8] BAG B,B,E | %21
 .E3 D3 | z3 .c3 | .e3 B3 | BAG[K:bass] B,B,E | .E3 D3 | A3 A3 | A3- A2 A | BAG B,B,E | .E3 D3 | %30
 z3 .c3 | .e3 B3 | BAG z ^DD | cBA z EE | GFE z B,B |[M:4/4] A2 z2 z4 |] %36
V:2
 z6 | G,,2 [D,G,]2 [D,G,B,]2 | C,,2 [C,E,A,]2 [C,E,A,]2 | D,,2 [D,F,]2 [D,F,C]2 | %4
[M:2/4] G,,2 [D,G,]2 |[M:1/4] [D,G,B,]2 |[M:3/4] G,,2 [D,G,]2 [D,G,B,]2 | %7
 C,,2 [C,E,A,]2 [C,E,A,]2 | F,2 z2 [A,D][G,^C] | [D,F,]6 |[M:1/4] z2 | %11
[M:3/4] z [D,F,] [D,F,][D,F,C] [D,F,C][D,F,C] | z [D,G,] [D,G,B,][D,G,] [D,G,B,][D,G,B,] | %13
 z [C,E,] [C,E,][C,E,G,] [C,E,][C,E,] |[M:2/4] [B,,F,]4 |[M:1/4] z2 | %16
[M:3/4] z [E,^G,] [E,G,][E,G,D] [E,G,D][E,G,D] | z [E,A,] [E,A,C][E,A,] [^C,G,_B,]2 | %18
[M:7/8] [D,G,B,][D,G,][D,G,] [D,G,B,][E,G,A,^C]3/2[D,F,A,=C]3/2 |[M:3/4] [G,,D,G,]6 | %20
[M:6/8] z [D,G,B,][D,G,B,] [D,G,][D,G,][D,G,B,] | z [D,F,][D,F,C] [D,F,C][D,F,][D,F,] | %22
 z [D,F,C][D,F,C] [D,F,C][D,F,][D,F,C] | z [D,G,][D,G,B,] [D,G,B,][D,G,][D,G,] | %24
 z [D,G,B,][D,G,B,] [D,G,][D,G,][D,G,B,] | z D,D, z D,D, | z [F,A,D][F,A,D] z [E,A,^C][E,A,C] | %27
 z [F,A,D][F,A,D] [F,A,C][F,A,C][F,A,C] | z [D,G,B,][D,G,B,] [D,G,][D,G,][D,G,B,] | %29
 z [D,F,][D,F,C] [D,F,C][D,F,][D,F,] | z [D,F,C][D,F,C] [D,F,C][D,F,][D,F,C] | %31
 z [D,G,][D,G,B,] [D,G,B,][D,G,][D,G,] | z [D,G,B,][D,G,B,] z [F,A,B,][F,A,B,] | %33
 z [F,A,B,^D][F,A,B,D] z [G,B,][G,B,] | z [E,G,_B,][E,G,B,] z G,[G,=B,] | %35
[M:4/4] z[K:treble] [A,CD] [A,CDF]>[K:bass][G,,D,G,]- [G,,D,G,]4 |] %36
V:3
 x6 | D4 z2 | x6 | D4 z2 |[M:2/4] z2 B,2 |[M:1/4] x2 |[M:3/4] D4 z2 | x6 | D4 z2 | x6 |[M:1/4] x2 | %11
[M:3/4] D4 z2 | z B, z B, GF | z G, G,F [EG][EA] |[M:2/4] x4 |[M:1/4] x2 |[M:3/4] z D De dB | %17
 z C z C GE |[M:7/8] D3 z z z2 |[M:3/4] x6 |[M:6/8] x6 | z CD z CC | A^GA z Ce | z B,d z B,B, | %24
 x3[K:bass] x3 | z [F,C][F,CD] [D,F,C][F,C][F,C] | z FF z GG | z FF D/E/F/.G_B/ | x6 | z CD z CC | %30
 A^GA z Ce | z B,d z B,B, | z3 F3 | z3 G3 | z3 .D3 |[M:4/4] z F d>[B,DG]- [B,DG]4 |] %36
V:4
 x6 | z2 B,2 z2 | x6 | z2 C2 z2 |[M:2/4] x4 |[M:1/4] x2 |[M:3/4] z2 B,2 z2 | x6 | z2 B,2 z2 | x6 | %10
[M:1/4] x2 |[M:3/4] x6 | x6 | x6 |[M:2/4] x4 |[M:1/4] x2 |[M:3/4] x6 | x6 |[M:7/8] x7 |[M:3/4] x6 | %20
[M:6/8] x6 | x6 | x6 | x6 | x3[K:bass] x3 | x6 | x6 | x6 | x6 | x6 | x6 | x6 | x6 | x6 | x6 | %35
[M:4/4] x8 |] %36
V:5
 x6 | x6 | x6 | x6 |[M:2/4] x4 |[M:1/4] x2 |[M:3/4] x6 | x6 | A,,6 | x6 |[M:1/4] x2 |[M:3/4] D,,6 | %12
 G,,6 | C,,6 |[M:2/4] x4 |[M:1/4] x2 |[M:3/4] E,,6 | A,,6 |[M:7/8] x7 |[M:3/4] x6 |[M:6/8] G,,6 | %21
 D,,6 | D,,6 | G,,6 | G,,6 | C,,3 D,,3 | A,,3 A,,3 | D,6 | G,,6 | D,,6 | D,,6 | G,,6 | G,,3 B,,3 | %33
 B,,3 E,3 | ^C,3 D,3 |[M:4/4] D,4[K:treble][K:bass] z4 |] %36

